public/theme/icons/lupine.svg

<svg width="33" height="34" viewBox="0 0 33 34" fill="none" xmlns="http://www.w3.org/2000/svg">
<circle cx="15" cy="15" r="15" fill="#D2A04F"/>
<path fill-rule="evenodd" clip-rule="evenodd" d="M28.836 20.8037C29.5857 19.0185 30 17.0576 30 15C30 6.71573 23.2843 0 15 0C6.71573 0 0 6.71573 0 15C0 23.2843 6.71573 30 15 30C18.844 30 22.3502 28.5541 25.0046 26.1764L11.0361 12.208L11.0371 12.2051L12.9269 12.8761L12.166 12.1152L14.9463 9.33496L19.5108 13.8995L21.375 13.3428L28.836 20.8037Z" fill="#D2A04F"/>
<path fill-rule="evenodd" clip-rule="evenodd" d="M30 15C30 17.0576 29.5857 19.0185 28.836 20.8037L21.375 13.3428L19.5108 13.8995L14.9463 9.33496L12.166 12.1152L12.9269 12.8761L11.0371 12.2051L11.0361 12.208L25.0046 26.1764C24.6936 26.455 24.3709 26.7208 24.0374 26.9729L14.1799 17.1154L9.60052 20.9208L18.3127 29.633C17.247 29.8732 16.1383 30 15 30C6.71573 30 0 23.2843 0 15C0 6.71573 6.71573 0 15 0C23.2843 0 30 6.71573 30 15Z" fill="#E3B466"/>
<g filter="url(#filter0_d_105_30101)">
<path d="M14.3793 17.4206C15.1327 18.8963 14.5473 20.7033 13.0717 21.4567C11.5961 22.2102 9.78903 21.6248 9.03557 20.1491C8.28212 18.6735 10.5458 17.4523 10.9277 17.2578C11.3096 17.0633 13.6258 15.945 14.3793 17.4206Z" fill="white"/>
<path fill-rule="evenodd" clip-rule="evenodd" d="M11.3178 18.0216C11.7394 17.8063 11.9503 17.3754 11.7889 17.0592C11.7641 17.0108 11.7321 16.9678 11.694 16.9306C12.5534 16.6272 13.8511 16.3858 14.3796 17.421C15.1331 18.8966 14.5476 20.7036 13.072 21.4571C11.5964 22.2105 9.78934 21.6251 9.03589 20.1495C8.50731 19.1143 9.46366 18.2043 10.2135 17.6862C10.2213 17.7389 10.2373 17.7902 10.2621 17.8388C10.4235 18.155 10.8962 18.2368 11.3178 18.0216Z" fill="#D2A04F"/>
<path fill-rule="evenodd" clip-rule="evenodd" d="M11.7073 18.7844C12.5505 18.3538 13.0159 17.5776 12.7468 17.0506C12.6764 16.9126 12.5625 16.8053 12.4177 16.73C13.1657 16.5866 13.9857 16.6496 14.3793 17.4204C15.1328 18.896 14.5473 20.7031 13.0717 21.4565C11.5961 22.21 9.78904 21.6245 9.03559 20.1489C8.64195 19.378 9.07185 18.6765 9.62668 18.1546C9.60269 18.3163 9.62275 18.4716 9.6933 18.6097C9.96239 19.1367 10.8641 19.2149 11.7073 18.7844Z" fill="white"/>
<path d="M21.7118 13.9217C22.1631 15.5159 21.2366 17.1741 19.6424 17.6254C18.0482 18.0767 16.39 17.1502 15.9387 15.556C15.4874 13.9618 17.9458 13.2054 18.3582 13.0891C18.7707 12.9728 21.2605 12.3275 21.7118 13.9217Z" fill="white"/>
<path fill-rule="evenodd" clip-rule="evenodd" d="M18.592 13.9142C19.0475 13.7852 19.3384 13.4038 19.2417 13.0622C19.2268 13.0098 19.2038 12.9615 19.1737 12.9175C20.0758 12.7875 21.3956 12.8037 21.7122 13.9221C22.1635 15.5163 21.237 17.1745 19.6427 17.6258C18.0485 18.0771 16.3903 17.1506 15.939 15.5564C15.6224 14.438 16.7378 13.7319 17.5743 13.3699C17.5716 13.4232 17.5773 13.4766 17.5922 13.5291C17.6889 13.8707 18.1365 14.0431 18.592 13.9142Z" fill="#D2A04F"/>
<path fill-rule="evenodd" clip-rule="evenodd" d="M18.8249 14.7384C19.7359 14.4805 20.3437 13.8099 20.1825 13.2406C20.1403 13.0915 20.0496 12.9641 19.9222 12.8619C20.6838 12.8671 21.4758 13.0888 21.7116 13.9216C22.1629 15.5158 21.2364 17.174 19.6421 17.6253C18.0479 18.0766 16.3897 17.1501 15.9384 15.5559C15.7026 14.723 16.2611 14.1188 16.907 13.715C16.8519 13.869 16.8413 14.0252 16.8836 14.1744C17.0448 14.7438 17.9139 14.9963 18.8249 14.7384Z" fill="white"/>
<path d="M15.6562 11.7584C14.7359 13.1362 12.873 13.507 11.4952 12.5868C10.1174 11.6665 9.74654 9.80358 10.6668 8.4258C11.5871 7.04802 13.7577 8.42787 14.1138 8.66628C14.47 8.9047 16.5765 10.3806 15.6562 11.7584Z" fill="white"/>
<path fill-rule="evenodd" clip-rule="evenodd" d="M13.6377 9.37943C14.0314 9.64236 14.5104 9.61617 14.7076 9.32093C14.7378 9.2757 14.7596 9.22678 14.7735 9.17541C15.4578 9.77742 16.3017 10.7922 15.6562 11.7587C14.7359 13.1365 12.873 13.5074 11.4952 12.5872C10.1174 11.6669 9.74651 9.80396 10.6668 8.42618C11.3124 7.45961 12.5734 7.85023 13.3915 8.25182C13.3493 8.28441 13.3123 8.32341 13.282 8.36877C13.0848 8.66401 13.2441 9.1165 13.6377 9.37943Z" fill="#D2A04F"/>
<path fill-rule="evenodd" clip-rule="evenodd" d="M13.1615 10.0916C13.9488 10.6175 14.8535 10.6449 15.1822 10.1528C15.2682 10.024 15.3063 9.87229 15.3014 9.70911C15.7916 10.292 16.1368 11.0385 15.656 11.7582C14.7358 13.136 12.8728 13.5069 11.4951 12.5866C10.1173 11.6663 9.74639 9.8034 10.6667 8.42562C11.1474 7.7058 11.9695 7.73868 12.6958 7.96825C12.543 8.02622 12.4172 8.11952 12.3311 8.24852C12.0024 8.74058 12.3742 9.56578 13.1615 10.0916Z" fill="white"/>
</g>
<defs>
<filter id="filter0_d_105_30101" x="4.8833" y="5.82227" width="20.9429" height="21.9636" filterUnits="userSpaceOnUse" color-interpolation-filters="sRGB">
<feFlood flood-opacity="0" result="BackgroundImageFix"/>
<feColorMatrix in="SourceAlpha" type="matrix" values="0 0 0 0 0 0 0 0 0 0 0 0 0 0 0 0 0 0 127 0" result="hardAlpha"/>
<feOffset dy="2"/>
<feGaussianBlur stdDeviation="2"/>
<feComposite in2="hardAlpha" operator="out"/>
<feColorMatrix type="matrix" values="0 0 0 0 0 0 0 0 0 0 0 0 0 0 0 0 0 0 0.1 0"/>
<feBlend mode="normal" in2="BackgroundImageFix" result="effect1_dropShadow_105_30101"/>
<feBlend mode="normal" in="SourceGraphic" in2="effect1_dropShadow_105_30101" result="shape"/>
</filter>
</defs>
</svg>

<svg xmlns="http://www.w3.org/2000/svg" width="33" height="34" fill="none"><circle cx="15" cy="15" r="15" fill="#D2A04F"/><path fill="#D2A04F" fill-rule="evenodd" d="M28.836 20.804A15 15 0 0 0 30 15c0-8.284-6.716-15-15-15S0 6.716 0 15s6.716 15 15 15c3.844 0 7.35-1.446 10.005-3.824L11.036 12.208l.001-.003 1.89.671-.761-.76 2.78-2.781 4.565 4.564 1.864-.556z" clip-rule="evenodd"/><path fill="#E3B466" fill-rule="evenodd" d="M30 15c0 2.058-.414 4.018-1.164 5.804l-7.461-7.461-1.864.556-4.565-4.564-2.78 2.78.76.761-1.889-.67v.002l13.968 13.968q-.467.419-.968.797l-9.857-9.858-4.58 3.806 8.713 8.712c-1.066.24-2.175.367-3.313.367-8.284 0-15-6.716-15-15S6.716 0 15 0s15 6.716 15 15" clip-rule="evenodd"/><g filter="url(#a)"><path fill="#fff" d="M14.38 17.42a3 3 0 0 1-5.344 2.73c-.754-1.476 1.51-2.698 1.892-2.892.382-.195 2.698-1.313 3.451.163"/><path fill="#D2A04F" fill-rule="evenodd" d="M11.318 18.022c.421-.216.632-.647.47-.963a.5.5 0 0 0-.094-.128c.86-.304 2.157-.545 2.686.49a3 3 0 1 1-5.344 2.729c-.529-1.036.428-1.946 1.178-2.464a.5.5 0 0 0 .048.153c.162.316.634.398 1.056.183" clip-rule="evenodd"/><path fill="#fff" fill-rule="evenodd" d="M11.707 18.784c.843-.43 1.309-1.206 1.04-1.733a.75.75 0 0 0-.33-.321c.749-.143 1.569-.08 1.962.69a3 3 0 1 1-5.343 2.729c-.394-.771.036-1.473.59-1.994a.75.75 0 0 0 .067.455c.27.527 1.171.605 2.014.174" clip-rule="evenodd"/><path fill="#fff" d="M21.712 13.922a3 3 0 1 1-5.773 1.634c-.452-1.594 2.007-2.35 2.42-2.467s2.901-.761 3.353.833"/><path fill="#D2A04F" fill-rule="evenodd" d="M18.592 13.914c.456-.129.746-.51.65-.852a.5.5 0 0 0-.068-.144c.902-.13 2.222-.114 2.538 1.004a3 3 0 1 1-5.773 1.634c-.317-1.118.799-1.824 1.635-2.186a.5.5 0 0 0 .018.16c.097.34.545.513 1 .384" clip-rule="evenodd"/><path fill="#fff" fill-rule="evenodd" d="M18.825 14.738c.91-.258 1.519-.928 1.358-1.497a.75.75 0 0 0-.26-.38c.76.006 1.553.228 1.789 1.06a3 3 0 1 1-5.774 1.635c-.235-.833.323-1.437.969-1.841a.75.75 0 0 0-.023.46c.16.569 1.03.821 1.94.563" clip-rule="evenodd"/><path fill="#fff" d="M15.656 11.758a3 3 0 0 1-4.99-3.332c.921-1.378 3.092.002 3.448.24.356.239 2.462 1.715 1.542 3.092"/><path fill="#D2A04F" fill-rule="evenodd" d="M13.638 9.38c.393.262.872.236 1.07-.06a.5.5 0 0 0 .066-.145c.684.602 1.528 1.617.882 2.584a3 3 0 0 1-4.99-3.333c.646-.966 1.907-.576 2.726-.174a.5.5 0 0 0-.11.117c-.197.295-.038.748.356 1.01" clip-rule="evenodd"/><path fill="#fff" fill-rule="evenodd" d="M13.162 10.092c.787.525 1.691.553 2.02.06a.75.75 0 0 0 .12-.443c.49.583.835 1.33.354 2.05a3 3 0 1 1-4.99-3.333c.481-.72 1.303-.687 2.03-.458a.75.75 0 0 0-.365.28c-.329.493.043 1.318.83 1.844" clip-rule="evenodd"/></g><defs><filter id="a" width="20.943" height="21.964" x="4.883" y="5.822" color-interpolation-filters="sRGB" filterUnits="userSpaceOnUse"><feFlood flood-opacity="0" result="BackgroundImageFix"/><feColorMatrix in="SourceAlpha" result="hardAlpha" values="0 0 0 0 0 0 0 0 0 0 0 0 0 0 0 0 0 0 127 0"/><feOffset dy="2"/><feGaussianBlur stdDeviation="2"/><feComposite in2="hardAlpha" operator="out"/><feColorMatrix values="0 0 0 0 0 0 0 0 0 0 0 0 0 0 0 0 0 0 0.1 0"/><feBlend in2="BackgroundImageFix" result="effect1_dropShadow_105_30101"/><feBlend in="SourceGraphic" in2="effect1_dropShadow_105_30101" result="shape"/></filter></defs></svg>
